imgs/icons/corazon-rojo.svg

<?xml version="1.0" encoding="UTF-8" standalone="no"?>
<!DOCTYPE svg PUBLIC "-//W3C//DTD SVG 1.1//EN" "http://www.w3.org/Graphics/SVG/1.1/DTD/svg11.dtd">
<svg xmlns="http://www.w3.org/2000/svg" version="1.1" viewBox="0.00 0.00 512.00 512.00">
<path fill="#f40b5f" d="
  M 126.53 0.00
  L 129.82 0.00
  Q 176.90 2.43 209.33 34.29
  Q 213.65 38.52 222.65 49.21
  Q 239.20 68.84 255.79 88.38
  A 0.31 0.30 44.5 0 0 256.26 88.38
  Q 274.13 67.27 292.00 46.09
  Q 300.58 35.92 305.48 31.33
  Q 336.70 2.08 381.07 0.00
  L 387.31 0.00
  C 465.22 3.69 510.37 76.62 512.00 148.18
  L 512.00 155.31
  C 510.44 189.98 501.34 221.18 481.34 249.33
  Q 477.52 254.70 468.85 264.95
  Q 366.05 386.47 263.15 507.90
  Q 260.34 511.21 256.94 512.00
  L 255.18 512.00
  Q 251.66 511.23 248.16 507.08
  Q 145.20 385.47 42.22 263.84
  C 15.71 232.53 1.28 197.91 0.00 156.12
  L 0.00 147.96
  C 1.70 74.60 47.72 4.16 126.53 0.00
  Z"
/>
</svg>

<?xml version="1.0" encoding="utf-8"?>
<!-- Generator: Adobe Illustrator 26.0.0, SVG Export Plug-In . SVG Version: 6.00 Build 0)  -->
<svg version="1.1" id="Capa_1" xmlns="http://www.w3.org/2000/svg" xmlns:xlink="http://www.w3.org/1999/xlink" x="0px" y="0px"
	 viewBox="0 0 512 512" style="enable-background:new 0 0 512 512;" xml:space="preserve">
<style type="text/css">
	.st0{fill:#E51E25;}
</style>
<path class="st0" d="M126.5,0h3.3c31.4,1.6,57.9,13.1,79.5,34.3c2.9,2.8,7.3,7.8,13.3,14.9c11,13.1,22.1,26.1,33.1,39.2
	c0.1,0.1,0.3,0.1,0.4,0c0,0,0,0,0,0c11.9-14.1,23.8-28.2,35.7-42.3c5.7-6.8,10.2-11.7,13.5-14.8c20.8-19.5,46-29.9,75.6-31.3h6.2
	C465.2,3.7,510.4,76.6,512,148.2v7.1c-1.6,34.7-10.7,65.9-30.7,94c-2.5,3.6-6.7,8.8-12.5,15.6c-68.5,81-137.1,162-205.7,242.9
	c-1.9,2.2-3.9,3.6-6.2,4.1h-1.8c-2.3-0.5-4.7-2.2-7-4.9C179.5,426,110.9,344.9,42.2,263.8C15.7,232.5,1.3,197.9,0,156.1V148
	C1.7,74.6,47.7,4.2,126.5,0z"/>
</svg>
